public/img/users/netapp.svg

<svg width="1111" height="200" viewBox="0 0 1111 200" fill="none" xmlns="http://www.w3.org/2000/svg">
<g clip-path="url(#clip0_4213_2764)">
<path d="M0 0V163.029H76.0863V65.2069H119.562V163.029H195.633V0H0Z" fill="#5A77F6"/>
<path d="M282.586 0.0231327H315.453L391.269 100.809V0.0231327H426.411V163.007H396.14L317.743 60.1038V163.016H282.584L282.586 0.0231327ZM443.509 101.741C443.509 139.673 471.022 165.793 508.274 165.793C530.677 165.793 547.325 157.002 558.851 142.653L538.767 124.849C529.061 133.882 520.511 137.587 508.729 137.587C492.974 137.587 481.911 129.259 478.435 113.309H564.662C564.93 110.085 565.135 106.811 565.135 104.08C565.135 68.9219 546.178 36.7894 504.824 36.7894C468.745 36.7894 443.524 65.9164 443.524 101.257V101.741M477.949 91.324C480.711 75.401 490.201 64.9579 504.808 64.9579C519.572 64.9579 528.838 75.5773 530.907 91.324H477.949ZM587.068 127.845C587.068 156.519 601.628 165.075 623.088 165.075C634.884 165.075 643.482 162.301 650.878 157.903V129.676C645.775 132.495 640.004 134.128 633.509 134.128C625.68 134.128 622.196 130.166 622.196 122.072V69.1246H651.343V39.0809H622.196V7.4101H587.065V39.0821H572.272V69.1257H587.065L587.068 127.845ZM835.92 200H871.027V146.831C879.354 156.756 890.917 165.321 909.638 165.321C939.029 165.321 966.077 142.666 966.077 101.253V100.812C966.077 59.4251 938.576 36.7839 909.638 36.7839C891.391 36.7839 879.593 45.3089 871.027 56.8736V39.0854H835.92V200ZM930.881 101.255C930.881 122.065 917.026 135.503 900.618 135.503C884.207 135.503 870.573 121.839 870.573 101.255V100.812C870.573 80.2331 884.221 66.6039 900.618 66.6039C917.026 66.6039 930.881 80.2331 930.881 100.812V101.255ZM980.361 200H1015.5V146.831C1023.81 156.756 1035.38 165.321 1054.13 165.321C1083.47 165.321 1110.52 142.666 1110.52 101.253V100.812C1110.52 59.4251 1083.02 36.7839 1054.13 36.7839C1035.86 36.7839 1024.06 45.3089 1015.5 56.8736V39.0854H980.361V200ZM1075.4 101.255C1075.4 122.065 1061.5 135.503 1045.08 135.503C1028.72 135.503 1015.04 121.839 1015.04 101.255V100.812C1015.04 80.2331 1028.71 66.6039 1045.08 66.6039C1061.5 66.6039 1075.4 80.2331 1075.4 100.812V101.255ZM659.874 163.012H696.162L710.966 126.683H775.129L790.029 163.012H827.119L759.492 0.00660706H727.487L659.874 163.012ZM721.531 95.3023L743.052 42.7496L764.549 95.3023H721.531Z" fill="white"/>
</g>
<defs>
<clipPath id="clip0_4213_2764">
<rect width="1110.52" height="200" fill="white"/>
</clipPath>
</defs>
</svg>

<svg xmlns="http://www.w3.org/2000/svg" fill="none" viewBox="0 0 1111 200">
    <g clip-path="url(#a)">
        <path fill="#5a77f6" d="M0 0v163h76V65.2h43.6V163h76V0z"/>
        <path fill="#fff" d="M282.6 0h32.9l75.8 100.8V0h35.1v163h-30.3L317.7 60.1v103h-35.1zm161 101.7c0 38 27.4 64 64.7 64 22.4 0 39-8.7 50.6-23l-20.1-17.9a41 41 0 0 1-30 12.8c-15.8 0-26.9-8.3-30.4-24.3h86.3q.4-5 .4-9.2c0-35.2-19-67.3-60.3-67.3-36 0-61.3 29.1-61.3 64.5zM478 91.3c2.8-15.9 12.3-26.3 27-26.3s24 10.6 26 26.3zm109.2 36.5c0 28.7 14.5 37.3 36 37.3a52 52 0 0 0 27.8-7.2v-28.2a35 35 0 0 1-17.4 4.4c-7.8 0-11.3-4-11.3-12V69h29.1v-30h-29.1V7.4h-35.1v31.7h-14.8v30H587zM835.9 200H871v-53.2a48 48 0 0 0 38.6 18.5c29.4 0 56.5-22.6 56.5-64v-.5c0-41.4-27.5-64-56.5-64-18.2 0-30 8.5-38.6 20V39.2h-35zm95-98.7c0 20.8-13.9 34.2-30.3 34.2s-30-13.7-30-34.2v-.5c0-20.6 13.6-34.2 30-34.2S931 80.2 931 100.8zm49.5 98.7h35.1v-53.2a48 48 0 0 0 38.6 18.5c29.4 0 56.4-22.6 56.4-64v-.5c0-41.4-27.5-64-56.4-64-18.2 0-30 8.5-38.6 20V39.2h-35.1zm95-98.7c0 20.8-13.9 34.2-30.3 34.2s-30-13.7-30-34.2v-.5c0-20.6 13.6-34.2 30-34.2s30.3 13.6 30.3 34.2zM659.9 163h36.3l14.8-36.3H775l15 36.3h37L759.5 0h-32zm61.6-67.7 21.6-52.5 21.4 52.5z"/>
    </g>
    <defs>
        <clipPath id="a">
            <path fill="#fff" d="M0 0h1110.5v200H0z"/>
        </clipPath>
    </defs>
</svg>
